svg/emoji_u1f50a.svg

<?xml version="1.0" encoding="UTF-8"?>
<svg width="128" height="128" enable-background="new 0 0 128 128" xmlns="http://www.w3.org/2000/svg"><g fill="url(#c)"><radialGradient id="c" cx="91.333" cy="15.906" r="106.76" gradientTransform="matrix(1 0 0 1.0016 0 -.1007)" gradientUnits="userSpaceOnUse"><stop stop-color="#FFB74D" offset="0"/><stop stop-color="#FEB449" offset=".2212"/><stop stop-color="#FDAA3C" offset=".4534"/><stop stop-color="#FA9A27" offset=".6907"/><stop stop-color="#F6840A" offset=".9301"/><stop stop-color="#F57C00" offset="1"/></radialGradient><path d="m124 63.81c0-27.37-19.68-50.19-45.61-55.09-1.24-0.23-2.39 0.71-2.39 1.97v8.16c0 0.95 0.67 1.75 1.6 1.96 19.66 4.4 34.4 22 34.4 43s-14.74 38.6-34.4 43c-0.93 0.21-1.6 1.01-1.6 1.96v8.16c0 1.26 1.15 2.2 2.39 1.97 25.93-4.9 45.61-27.72 45.61-55.09z"/><path d="m107.33 63.81c0-18.07-12.22-33.34-28.81-37.96-1.27-0.36-2.52 0.62-2.52 1.94v8.41c0 0.83 0.51 1.59 1.28 1.87 10.51 3.81 18.05 13.91 18.05 25.74s-7.54 21.93-18.05 25.74c-0.77 0.28-1.28 1.04-1.28 1.87v8.41c0 1.32 1.25 2.29 2.52 1.94 16.6-4.62 28.81-19.89 28.81-37.96z"/><path d="m90.67 63.81c0-8.55-4.74-15.99-11.73-19.86-1.32-0.73-2.94 0.26-2.94 1.77v10.35c0 0.46 0.17 0.9 0.45 1.27 1.38 1.8 2.21 4.03 2.21 6.47s-0.83 4.67-2.21 6.47c-0.28 0.37-0.45 0.81-0.45 1.27v10.35c0 1.51 1.62 2.5 2.94 1.77 6.98-3.87 11.73-11.32 11.73-19.86z"/></g><g fill="#424242" opacity=".2"><path d="m79 11.9c24.41 5.17 42 26.81 42 51.91 0 25.09-17.59 46.74-42 51.91v-6.16c9.96-2.4 18.99-8.11 25.5-16.14 6.77-8.35 10.5-18.86 10.5-29.61s-3.73-21.26-10.5-29.61c-6.51-8.03-15.54-13.74-25.5-16.14v-6.16m-0.99-3.22c-1.09 0-2.01 0.87-2.01 2.01v8.16c0 0.95 0.67 1.75 1.6 1.96 19.66 4.4 34.4 22 34.4 43s-14.74 38.6-34.4 43c-0.93 0.21-1.6 1.01-1.6 1.96v8.16c0 1.13 0.93 2.01 2.01 2.01 0.13 0 0.25-0.01 0.38-0.04 25.93-4.9 45.61-27.72 45.61-55.09s-19.68-50.19-45.61-55.09c-0.12-0.02-0.25-0.04-0.38-0.04z"/><path d="m79 29.12c14.98 4.77 25.33 18.85 25.33 34.69s-10.35 29.91-25.33 34.69v-6.39c11.59-4.53 19.33-15.81 19.33-28.3s-7.74-23.77-19.33-28.3v-6.39m-1.01-3.35c-1.07 0-1.99 0.88-1.99 2.01v8.41c0 0.83 0.51 1.59 1.28 1.87 10.51 3.81 18.05 13.91 18.05 25.74s-7.54 21.93-18.05 25.74c-0.77 0.29-1.28 1.05-1.28 1.88v8.41c0 1.13 0.93 2.01 1.99 2.01 0.17 0 0.35-0.02 0.53-0.07 16.6-4.62 28.81-19.89 28.81-37.96s-12.21-33.34-28.81-37.96c-0.18-0.05-0.35-0.08-0.53-0.08z"/><path d="m79 47.5c5.39 3.65 8.67 9.75 8.67 16.31s-3.28 12.66-8.67 16.31v-8.23c1.75-2.37 2.67-5.15 2.67-8.08 0-2.92-0.92-5.71-2.67-8.08v-8.23m-1-3.8c-1.04 0-2 0.86-2 2.02v10.35c0 0.46 0.17 0.9 0.45 1.27 1.38 1.8 2.21 4.03 2.21 6.47s-0.83 4.67-2.21 6.47c-0.28 0.37-0.45 0.81-0.45 1.27v10.35c0 1.16 0.96 2.02 2 2.02 0.31 0 0.63-0.08 0.94-0.25 6.98-3.87 11.73-11.32 11.73-19.86 0-8.55-4.74-15.99-11.73-19.86-0.31-0.17-0.63-0.25-0.94-0.25z"/></g><radialGradient id="b" cx="19.167" cy="37.739" r="64.296" gradientTransform="matrix(1 0 0 1.0016 0 -.1007)" gradientUnits="userSpaceOnUse"><stop stop-color="#64B5F6" offset="0"/><stop stop-color="#5FB2F5" offset=".1869"/><stop stop-color="#51A9F1" offset=".4057"/><stop stop-color="#3A9AEC" offset=".6394"/><stop stop-color="#1E88E5" offset=".8495"/><stop stop-color="#1E88E5" offset="1"/></radialGradient><path d="M36,92.04H8c-2.21,0-4-1.79-4-4.01V39.96c0-2.21,1.79-4.01,4-4.01h28V92.04z" fill="url(#b)"/><rect x="12" y="35.95" width="4" height="56.09" fill="#1E88E5"/><radialGradient id="a" cx="58" cy="8.656" r="105.05" gradientTransform="matrix(1 0 0 1.0016 0 -.1007)" gradientUnits="userSpaceOnUse"><stop stop-color="#BBDEFB" offset="0"/><stop stop-color="#B3DAFB" offset=".1183"/><stop stop-color="#9ED0FA" offset=".2989"/><stop stop-color="#7BC0F8" offset=".5193"/><stop stop-color="#4CAAF5" offset=".769"/><stop stop-color="#42A5F5" offset=".8153"/><stop stop-color="#2196F3" offset="1"/></radialGradient><path d="m56.8 6.26c-19.78 21.76-32.8 29.69-32.8 29.69v56.09s13.11 8.01 32.81 29.71c3.82 4.2 11.19 2.16 11.19-3.29v-108.94c0-5.46-7.37-7.47-11.2-3.26z" fill="url(#a)"/><g opacity=".2"><path d="m61.93 7c1.06 0 3.07 0.53 3.07 2.53v108.94c0 1.86-1.85 2.54-3.09 2.54-0.65 0-1.88-0.16-2.88-1.26-19.76-21.78-32.92-29.93-33.47-30.27l-0.72-0.44h-16.84c-0.55 0-1-0.45-1-1.01v-48.07c0-0.55 0.45-1.01 1-1.01h16.84l0.72-0.44c0.55-0.33 13.61-8.4 33.46-30.24 1.01-1.1 2.26-1.27 2.91-1.27m0-3c-1.83 0-3.71 0.71-5.12 2.26-19.79 21.76-32.81 29.69-32.81 29.69h-16c-2.21 0-4 1.79-4 4.01v48.08c0 2.21 1.79 4.01 4 4.01h16s13.11 8.01 32.81 29.71c1.4 1.54 3.28 2.25 5.1 2.25 3.13 0 6.09-2.08 6.09-5.54v-108.94c0-3.45-2.94-5.53-6.07-5.53z" fill="#424242"/></g></svg>

<svg width="128" height="128" style="enable-background:new 0 0 128 128;" xmlns="http://www.w3.org/2000/svg" xmlns:xlink="http://www.w3.org/1999/xlink">
  <g>
    <radialGradient id="SVGID_1_" cx="91.3333" cy="15.906" gradientTransform="matrix(1 0 0 1.0016 0 -0.1007)" gradientUnits="userSpaceOnUse" r="106.7569">
      <stop offset="0" style="stop-color:#FFB74D"/>
      <stop offset="0.2212" style="stop-color:#FEB449"/>
      <stop offset="0.4534" style="stop-color:#FDAA3C"/>
      <stop offset="0.6907" style="stop-color:#FA9A27"/>
      <stop offset="0.9301" style="stop-color:#F6840A"/>
      <stop offset="1" style="stop-color:#F57C00"/>
    </radialGradient>
    <path d="M124,63.81c0-27.37-19.68-50.19-45.61-55.09C77.15,8.49,76,9.43,76,10.69v8.16 c0,0.95,0.67,1.75,1.6,1.96c19.66,4.4,34.4,22,34.4,43c0,21-14.74,38.6-34.4,43c-0.93,0.21-1.6,1.01-1.6,1.96v8.16 c0,1.26,1.15,2.2,2.39,1.97C104.32,114,124,91.18,124,63.81z" style="fill:url(#SVGID_1_);"/>
    <radialGradient id="SVGID_2_" cx="91.3333" cy="15.906" gradientTransform="matrix(1 0 0 1.0016 0 -0.1007)" gradientUnits="userSpaceOnUse" r="106.7569">
      <stop offset="0" style="stop-color:#FFB74D"/>
      <stop offset="0.2212" style="stop-color:#FEB449"/>
      <stop offset="0.4534" style="stop-color:#FDAA3C"/>
      <stop offset="0.6907" style="stop-color:#FA9A27"/>
      <stop offset="0.9301" style="stop-color:#F6840A"/>
      <stop offset="1" style="stop-color:#F57C00"/>
    </radialGradient>
    <path d="M107.33,63.81c0-18.07-12.22-33.34-28.81-37.96C77.25,25.49,76,26.47,76,27.79v8.41 c0,0.83,0.51,1.59,1.28,1.87c10.51,3.81,18.05,13.91,18.05,25.74c0,11.83-7.54,21.93-18.05,25.74C76.51,89.83,76,90.59,76,91.42 v8.41c0,1.32,1.25,2.29,2.52,1.94C95.12,97.15,107.33,81.88,107.33,63.81z" style="fill:url(#SVGID_2_);"/>
    <radialGradient id="SVGID_3_" cx="91.3333" cy="15.906" gradientTransform="matrix(1 0 0 1.0016 0 -0.1007)" gradientUnits="userSpaceOnUse" r="106.7569">
      <stop offset="0" style="stop-color:#FFB74D"/>
      <stop offset="0.2212" style="stop-color:#FEB449"/>
      <stop offset="0.4534" style="stop-color:#FDAA3C"/>
      <stop offset="0.6907" style="stop-color:#FA9A27"/>
      <stop offset="0.9301" style="stop-color:#F6840A"/>
      <stop offset="1" style="stop-color:#F57C00"/>
    </radialGradient>
    <path d="M90.67,63.81c0-8.55-4.74-15.99-11.73-19.86C77.62,43.22,76,44.21,76,45.72v10.35 c0,0.46,0.17,0.9,0.45,1.27c1.38,1.8,2.21,4.03,2.21,6.47c0,2.44-0.83,4.67-2.21,6.47C76.17,70.65,76,71.09,76,71.55V81.9 c0,1.51,1.62,2.5,2.94,1.77C85.92,79.8,90.67,72.35,90.67,63.81z" style="fill:url(#SVGID_3_);"/>
  </g>
  <g style="opacity:0.2;">
    <path d="M79,11.9c24.41,5.17,42,26.81,42,51.91c0,25.09-17.59,46.74-42,51.91v-6.16 c9.96-2.4,18.99-8.11,25.5-16.14c6.77-8.35,10.5-18.86,10.5-29.61c0-10.75-3.73-21.26-10.5-29.61 C97.99,26.17,88.96,20.46,79,18.06V11.9 M78.01,8.68c-1.09,0-2.01,0.87-2.01,2.01v8.16c0,0.95,0.67,1.75,1.6,1.96 c19.66,4.4,34.4,22,34.4,43c0,21-14.74,38.6-34.4,43c-0.93,0.21-1.6,1.01-1.6,1.96v8.16c0,1.13,0.93,2.01,2.01,2.01 c0.13,0,0.25-0.01,0.38-0.04C104.32,114,124,91.18,124,63.81c0-27.37-19.68-50.19-45.61-55.09C78.27,8.7,78.14,8.68,78.01,8.68 L78.01,8.68z" style="fill:#424242;"/>
    <path d="M79,29.12c14.98,4.77,25.33,18.85,25.33,34.69c0,15.84-10.35,29.91-25.33,34.69v-6.39 c11.59-4.53,19.33-15.81,19.33-28.3c0-12.49-7.74-23.77-19.33-28.3V29.12 M77.99,25.77c-1.07,0-1.99,0.88-1.99,2.01v8.41 c0,0.83,0.51,1.59,1.28,1.87c10.51,3.81,18.05,13.91,18.05,25.74c0,11.83-7.54,21.93-18.05,25.74C76.51,89.83,76,90.59,76,91.42 v8.41c0,1.13,0.93,2.01,1.99,2.01c0.17,0,0.35-0.02,0.53-0.07c16.6-4.62,28.81-19.89,28.81-37.96S95.12,30.47,78.52,25.85 C78.34,25.8,78.17,25.77,77.99,25.77L77.99,25.77z" style="fill:#424242;"/>
    <path d="M79,47.5c5.39,3.65,8.67,9.75,8.67,16.31c0,6.56-3.28,12.66-8.67,16.31v-8.23 c1.75-2.37,2.67-5.15,2.67-8.08c0-2.92-0.92-5.71-2.67-8.08V47.5 M78,43.7c-1.04,0-2,0.86-2,2.02v10.35c0,0.46,0.17,0.9,0.45,1.27 c1.38,1.8,2.21,4.03,2.21,6.47c0,2.44-0.83,4.67-2.21,6.47C76.17,70.65,76,71.09,76,71.55V81.9c0,1.16,0.96,2.02,2,2.02 c0.31,0,0.63-0.08,0.94-0.25c6.98-3.87,11.73-11.32,11.73-19.86c0-8.55-4.74-15.99-11.73-19.86C78.63,43.78,78.31,43.7,78,43.7 L78,43.7z" style="fill:#424242;"/>
  </g>
  <radialGradient id="SVGID_4_" cx="19.1667" cy="37.7393" gradientTransform="matrix(1 0 0 1.0016 0 -0.1007)" gradientUnits="userSpaceOnUse" r="64.2964">
    <stop offset="0" style="stop-color:#64B5F6"/>
    <stop offset="0.1869" style="stop-color:#5FB2F5"/>
    <stop offset="0.4057" style="stop-color:#51A9F1"/>
    <stop offset="0.6394" style="stop-color:#3A9AEC"/>
    <stop offset="0.8495" style="stop-color:#1E88E5"/>
    <stop offset="1" style="stop-color:#1E88E5"/>
  </radialGradient>
  <path d="M36,92.04H8c-2.21,0-4-1.79-4-4.01V39.96c0-2.21,1.79-4.01,4-4.01h28V92.04z" style="fill:url(#SVGID_4_);"/>
  <rect height="56.09" style="fill:#1E88E5;" width="4" x="12" y="35.95"/>
  <radialGradient id="SVGID_5_" cx="58" cy="8.656" gradientTransform="matrix(1 0 0 1.0016 0 -0.1007)" gradientUnits="userSpaceOnUse" r="105.0515">
    <stop offset="0" style="stop-color:#BBDEFB"/>
    <stop offset="0.1183" style="stop-color:#B3DAFB"/>
    <stop offset="0.2989" style="stop-color:#9ED0FA"/>
    <stop offset="0.5193" style="stop-color:#7BC0F8"/>
    <stop offset="0.769" style="stop-color:#4CAAF5"/>
    <stop offset="0.8153" style="stop-color:#42A5F5"/>
    <stop offset="1" style="stop-color:#2196F3"/>
  </radialGradient>
  <path d="M56.8,6.26C37.02,28.02,24,35.95,24,35.95v56.09c0,0,13.11,8.01,32.81,29.71 c3.82,4.2,11.19,2.16,11.19-3.29c0-26.41,0-82.45,0-108.94C68,4.06,60.63,2.05,56.8,6.26z" style="fill:url(#SVGID_5_);"/>
  <g style="opacity:0.2;">
    <path d="M61.93,7C62.99,7,65,7.53,65,9.53v108.94c0,1.86-1.85,2.54-3.09,2.54c-0.65,0-1.88-0.16-2.88-1.26 C39.27,97.97,26.11,89.82,25.56,89.48l-0.72-0.44H24H8c-0.55,0-1-0.45-1-1.01V39.96c0-0.55,0.45-1.01,1-1.01h16h0.84l0.72-0.44 c0.55-0.33,13.61-8.4,33.46-30.24C60.03,7.17,61.28,7,61.93,7 M61.93,4c-1.83,0-3.71,0.71-5.12,2.26C37.02,28.02,24,35.95,24,35.95 H8c-2.21,0-4,1.79-4,4.01v48.08c0,2.21,1.79,4.01,4,4.01h16c0,0,13.11,8.01,32.81,29.71c1.4,1.54,3.28,2.25,5.1,2.25 c3.13,0,6.09-2.08,6.09-5.54c0-26.41,0-82.45,0-108.94C68,6.08,65.06,4,61.93,4L61.93,4z" style="fill:#424242;"/>
  </g>
</svg>
